packages/ui/assets/svg/reddit.svg

<svg class="socials-size" width="24" height="20" viewBox="0 0 24 20" fill="none" xmlns="http://www.w3.org/2000/svg"><path class="fill" d="M24 9.779a2.654 2.654 0 0 0-4.497-1.899c-1.81-1.191-4.259-1.949-6.971-2.046l1.483-4.669 4.016.941-.006.058a2.17 2.17 0 0 0 2.174 2.163 2.17 2.17 0 0 0 2.172-2.163 2.171 2.171 0 0 0-4.193-.785L13.849.364a.37.37 0 0 0-.44.249L11.755 5.82c-2.838.034-5.409.798-7.3 2.025a2.643 2.643 0 0 0-1.799-.712A2.654 2.654 0 0 0 0 9.779c0 .97.533 1.811 1.317 2.271a4.716 4.716 0 0 0-.086.857C1.231 16.818 6.039 20 11.95 20s10.72-3.182 10.72-7.093c0-.274-.029-.544-.075-.81A2.633 2.633 0 0 0 24 9.779ZM6.776 11.595c0-.868.71-1.575 1.582-1.575a1.58 1.58 0 0 1 1.581 1.575 1.58 1.58 0 0 1-1.581 1.574 1.58 1.58 0 0 1-1.582-1.574Zm9.061 4.669c-.797.793-2.048 1.179-3.824 1.179L12 17.44l-.013.003c-1.777 0-3.028-.386-3.824-1.179a.369.369 0 0 1 0-.523.372.372 0 0 1 .526 0c.65.647 1.729.961 3.298.961l.013.003.013-.003c1.569 0 2.648-.315 3.298-.962a.373.373 0 0 1 .526 0 .37.37 0 0 1 0 .524Zm-.189-3.095a1.58 1.58 0 0 1-1.581-1.574 1.58 1.58 0 0 1 1.581-1.575 1.58 1.58 0 0 1 1.581 1.575 1.58 1.58 0 0 1-1.581 1.574Z" fill="#112338"/></svg>

<svg class="socials-size" width="24" height="20" viewBox="0 0 24 20" fill="none" xmlns="http://www.w3.org/2000/svg">
<path class="fill" d="M24 9.779C24 8.32 22.808 7.134 21.343 7.134C20.628 7.134 19.98 7.42 19.503 7.88C17.693 6.689 15.244 5.931 12.532 5.834L14.015 1.165L18.031 2.106L18.025 2.164C18.025 3.357 19 4.327 20.199 4.327C21.397 4.327 22.371 3.357 22.371 2.164C22.371 0.971 21.396 0 20.199 0C19.279 0 18.495 0.574 18.178 1.379L13.849 0.364C13.66 0.318 13.468 0.427 13.409 0.613L11.755 5.82C8.917 5.854 6.346 6.618 4.455 7.845C3.981 7.407 3.352 7.133 2.656 7.133C1.191 7.133 0 8.32 0 9.779C0 10.749 0.533 11.59 1.317 12.05C1.265 12.332 1.231 12.617 1.231 12.907C1.231 16.818 6.039 20 11.95 20C17.861 20 22.67 16.818 22.67 12.907C22.67 12.633 22.641 12.363 22.595 12.097C23.427 11.65 24 10.785 24 9.779V9.779ZM6.776 11.595C6.776 10.727 7.486 10.02 8.358 10.02C9.23 10.02 9.939 10.727 9.939 11.595C9.939 12.463 9.23 13.169 8.358 13.169C7.486 13.169 6.776 12.463 6.776 11.595V11.595ZM15.837 16.264C15.04 17.057 13.789 17.443 12.013 17.443L12 17.44L11.987 17.443C10.21 17.443 8.959 17.057 8.163 16.264C8.018 16.12 8.018 15.885 8.163 15.741C8.308 15.596 8.544 15.596 8.689 15.741C9.339 16.388 10.418 16.702 11.987 16.702L12 16.705L12.013 16.702C13.582 16.702 14.661 16.387 15.311 15.74C15.456 15.595 15.692 15.596 15.837 15.74C15.982 15.885 15.982 16.119 15.837 16.264ZM15.648 13.169C14.776 13.169 14.067 12.463 14.067 11.595C14.067 10.727 14.776 10.02 15.648 10.02C16.52 10.02 17.229 10.727 17.229 11.595C17.229 12.463 16.52 13.169 15.648 13.169Z" fill="#112338"/>
</svg>
